X:1
T:Prelude and Fugue in A Minor.
C:J.C.Bach.
%%score { ( 1 5 6 7 ) | ( 2 4 8 9 ) | 3 }
L:1/8
Q:1/4=65
M:4/4
K:C
V:1 treble nm="            "
V:5 treble 
V:6 treble 
V:7 treble 
V:2 bass 
V:4 bass 
V:8 bass 
V:9 bass 
V:3 bass-8 
V:1
!f!"^Praeludium.""^\nManuale.\n\n\n\n\n\n  Pedale." z/ A/c/A/ e/A/c/A/ f/^G/B/G/ e/=G/B/G/ | %1
 e/^F/A/F/ d/=F/A/F/ d/E/^G/E/ c/E/=G/E/ | c/^D/^F/D/ B/=D/=F/D/ B/^C/E/C/ A/=C/E/C/ | %3
 A/B,/D/B,/ ^G/B,/D/B,/ (3=G/^C/D/ (3E/F/G/ (3F/E/D/ (3C/B,/A,/ | %4
 (3D/E/F/ (3E/D/=C/ (3B,/C/D/ (3C/x/x/ x2 (3D/C/B,/ (3F/E/D/ | %5
 (3C/x/x/ (3C/D/E/ (3F/E/D/ (3C/x/x/ x4 | x8 | x8 | x8 | x8 | %10
 x (3E/^G/A/ x (3F/G/A/ x (3E/G/A/ x (3F/E/D/ | %11
 x (3E/^G,/A,/ x (3E/G,/A,/ x (3E/G,/A,/ x (3E/G,/A,/ | %12
 x (3C/D/E/ x (3D/E/F/ x (3C/D/E/ x (3B,/C/D/ | %13
 x (3C/^G,/A,/ x (3C/G,/A,/ x (3C/G,/A,/ x (3C/G,/A,/ | %14
 x (3D/E/F/ x (3E/F/G/ x (3D/E/F/ x (3^C/D/E/ | %15
 x (3E/^C/D/ x (3E/C/D/ (3x/ D/F/ (3E/C/D/ (3x/ D/G/ (3E/C/D/ | %16
 x (3A/^c/d/ x (3_B/c/d/ x (3A/c/d/ x (3_B/A/G/ | x (3A/^C/D/ x (3G/C/D/ x (3A/C/D/ x (3A/C/D/ | %18
 x (3F/G/A/ x (3G/A/_B/ x (3F/G/A/ x (3E/F/G/ | x (3F/^C/D/ x (3G/C/D/ x (3A/C/D/ x (3=B/C/D/ | %20
 x (3A/B/=c/ x (3B/c/d/ x (3A/B/c/ x (3^G/A/B/ | %21
 z/4 E/4^F/4^G/4A/4B/4c/4d/4 e/4=f/4e/4d/4c/4B/4A/4^G/4 A/4B/4c/4d/4e/4^f/4^g/4a/4 b/4=f/4e/4d/4 ^G/4B/4c/4d/4 | %22
 E/4D/4E/4^F/4^G/4A/4B/4c/4 d/4B/4A/4^G/4 B,/4D/4E/4=F/4 [Bd]/4e/4[Bd]/4e/4[Bd]/4e/4[Bd]/4e/4 [Bd]/4e/4[Bd]/4e/4[Bd]/4e/4[Bd]/4e/4 | %23
 c4-[Q:1/4=60] c2-[Q:1/4=55] c>d |[Q:1/4=50] B2-[Q:1/4=45] B/^d/e[Q:1/4=5] z4[Q:1/4=65] | z8 | z8 | %27
 z4[Q:1/4=55] z2 z/[Q:1/4=65] e/f/^c/ | d4- d4 | z/ =B,/E/B,/ ^G/E/=B/G/ d/B/f/d/ B/d/G/B/ | %30
 D/^G/B,/D/x/x/x/D/ C/D/C/B,/ C/E/A/^G/ | A/d/c/B/ c/e/a/^g/ a4- | aa x2 x4 | %33
x/4x/4x/4x/4_E/4C/4B,/4C/4 x2 x4 | %34
 x2 x x/4 D/4E/4^F/4[Q:1/4=60] G/4G,/4B,/4D/4G/4B/4d/4B/4[Q:1/4=65] g z | %35
 z/!<(!"_cresc." c/e/c/ g/G/c/G/ B/d/f/d/ a/A/d/A/ | Bggg ffff!<)! | %37
!fff! e/c/e/c/ g/c/e/c/ f/=B/d/B/ e/A/c/A/ | d4 d4- | d/d/c/B/ c2- c2 z2 | %40
 z/ c/B/c/ A/a/A/c/ BB z2 | z/ _B/A/B/ G/g/G/B/ AA z2 | z/ _B/A/B/ F/f/B/d/ ^GG z2 | %43
 z/ A/G/A/ E/e/A/c/ d4 | c4 z/ B/A/B/ E/e/B/d/ | c2 z2 z4 | z4 z2 z/ e/d/e/ | %47
 c/c/B/c/ B2- B/^F/4^G/4A- A/B/^G | A/a/=g/a/ f/f/e/f/ e2- e/B/4^c/4d- | d/e/^c d2- d/^c/d/c/ d2- | %50
 d/^c/d/c/ d2- d/^c/d/e/ f2- | f/e/f/g/ a2-[Q:1/4=60] a/b/^g/a/[Q:1/4=55] f2- | %52
 f/[Q:1/4=52]f/[Q:1/4=49]e/[Q:1/4=46]d/[Q:1/4=43] ^g2[Q:1/4=40][Q:1/4=30][Q:1/4=20][Q:1/4=15] a4 |] %53
[M:6/8]"^Fuga."[Q:1/4=65]!mf! Ac/B/c/A/ BE/B/e/B/ | cAe f/e/f/d/f/c/ | f/d/f/B/f/G/ e/d/e/c/e/B/ | %56
 e/c/e/A/e/F/ d/c/d/B/d/A/ | d/B/d/^G/d/E/ c/A/c/e/a/^f/ | g e2- e/^d/e/^c/d/^f/ | b3- ba/g/^f/e/ | %60
 a3- ag/^f/e/d/ | g3- g^f/e/^d/e/ | ^f3- fe/f/g- | g/g/^f/e/f/d/ e a2- | a/a/^g/^f/g/e/ c'3- | %65
 c'/c'/b/a/=g/^f/ e3- | e/e/d/c/B/A/ ^G/A/B/c/d/B/ | c/d/e/d/e/f/ d3- | d/d/ e2- ed/c/B/A/ | %69
 ag/f/e/d/ g3- | gf/e/d/c/ f3- | fe/d/e/f/ e3 | z/ e/a/g/^f/e/ d3 | z e/^f/g- g3- | g/^c/de =f3 | %75
 e3 d3 | c3- c/c/B/A/B/d/ | ^G A2- A/A/=G/^F/G/E/ | c>cB/A/ G2 z | z z ^f b3- | ba/g/^f/e/ a3- | %81
 ag/^f/e/d/ g3- | g^f/e/d/c/ f3- | fe/^f/g- gA^c | d/^c/d/e/=f- fGB | c/B/c/d/e- e/B/c/d/e/c/ | %86
 f/g/f/e/d/c/ B/A/B/c/d/B/ | c/B/A/c/B/c/ d/c/d/e/c/d/ | B/A/G/B/A/B/ c/B/c/d/B/c/ | %89
 A/^G/A/B/G/A/ B/A/B/c/A/B/ | ^G/A/B/c/d/B/ e3- | e d2- d c2- | c B2- B A2- | A/^G/ A2- A/G/ A2- | %94
 A/^G/ A2- A/G/ A2- | A/^G/AB E/A<P^GA/ |!mp! Ac/B/c/A/ BE/B/e/B/ | cAe f/e/f/d/f/c/ | %98
 f/d/f/B/f/G/ e/d/e/c/e/B/ | e/c/e/A/e/F/ d/c/d/B/d/A/ | d/B/d/^G/d/E/ c/A/c/e/a/^f/ | %101
 g/^f/g/b/c'/a/ b>^fg/^d/ | e/^f/ P^d>e!>(! e/B/c/A/B/^F/!>)! |!p! G2 z GBe- | %104
 e^d/e/^f- f/d/e/f/g- | g/g/aa aaa- | a/^f/gg ggg- | g/e/^ff fff- | ^fe=d c3- | cAd B3- | %110
 Be/d/c/B/ A3- | A/c/B/A/G/^F/ G/F/G/A/B/G/ | c/B/c/d/e/c/ =f3- | f3 e/d/c/B/c- | %114
 cPB3/2A/4B/4 c/B/c/d/e- | e3 d3- | d3 c3- | c3 B3- | B>Gc/B/ c3- | c>Ad/c/ d3- | d>Be/d/ e3- | %121
 e/e/d/c/B/A/ B3- | B>BA/G/ ^F/E/ F2 | G/A/B/A/B/G/ A/D/^F/A/d/c/ | B/G/B/d/g/=f/ e/d/e/c/e/B/ | %125
 e/c/e/A/e/^F/ d/c/d/B/d/A/ | d/B/d/G/d/E/ c/B/c/A/c/G/ | c/A/c/^F/c/D/ B/A/B/G/B/D/ | %128
 A/G/A/^F/A/D/ B/A/B/G/B/D/ | c/A/c/^F/c/D/ d/B/d/G/d/D/ | e/^c/e/B/e/A/ =f/e/d/^c/d/e/ | %131
 g/f/e/d/e/g/ a/g/f/e/f/a/ | deMf g3 |!mp! ^cdMe f3- | fe/d/^c/d/ e/g/_b/g/e/^c/ | %135
 d/f/a/f/d/=c/ _B/d/g/d/B/G/ | c/e/g/e/c/_B/ A/c/f/c/A/F/ | _B/d/f/d/B/A/ ^G/=B/e/c/A/=G/ | %138
 ^F/A/d/B/G/=F/ E/G/c/A/F/E/ | D/B/D/B/D/B/ C/B/D/B/E/B/ | F/A/F/B/F/c/ D/d/E/d/F/d/ | %141
 G/B/G/c/G/d/ E/e/F/e/G/e/ | A/c/A/d/A/e/ f2 z | Bcd e2 z | AB^c dcd- | d=c/B/A/^G/ eAB | %146
 c/d<Pdc/4d/4 e3- | e3- e3- | e3- e3- | e3- e3- | e3 d3- | d3 c3- | c3 B3- | BA^G!f! A/G/A/c/B/d/ | %154
 c/B/c/A/d/B/ c/B/c/A/d/^G/ | A/^G/A/E/B/E/ c/B/c/E/d/E/ | e/f/e/d/c/B/ c/d/c/B/c/A/ | %157
 f/g/f/e/d/c/ B/c/B/A/B/G/ | g/a/g/f/e/d/ e/f/e/d/c/B/ | c/d/c/B/A/^G/ A/B/A/=G/^F/E/ | %160
 ^D/^F/ B2- B/E/ e2- | e/c/a/g/^f/e/ ^d3- | ^de=d- dcB- | BAG- G=FE | ^D/^F/A/c/B- B/A/G^F | %165
 EBe- e^d/^c/d | e/^f/g/f/g/e/ f/B/^d/f/a/f/ | g2 b a ^f2 | e3- e3 | d3- d3 | c3- c3 | B3- BGe | %172
 ^cAc dAd | BGB cec | AFA BdB | ^GEG A3- | A/B/c/d/e/=f/ ^G/A/B/c/d/e/ | %177
 f/e/d/f/e/d/ c/e/d/c/B/A/ | M^G3 MA3 | MB3 Mc3 | d3- d3 | c3- c3 | B3- Bcd | cde fed | c3- cac | %185
 B3 _BgB | A3- AfA | ^GeG AfA | BeB ^cfc | d=fe cec | BdB AcA |!<(! ^G2 z B2 z | d2 z =f2 z!<)! | %193
 e2 z z2 z | z6 | z6 | z6 | z6[Q:1/4=55][Q:1/4=45][Q:1/4=30] | %198
[Q:1/4=1] z/4[Q:1/4=75] a/4b/4c'/4b/4a/4^g/4a/4 ^f/4 a/4b/4c'/4 ^d/4 a/4b/4c'/4b/4a/4^g/4a/4 d/4 ^f/4=g/4a/4 | %199
 =c/4 a/4b/4c'/4b/4a/4^g/4a/4 c/4 ^d/4e/4^f/4 A/4 a/4b/4c'/4b/4a/4^g/4a/4 ^f/4 a/4b/4c'/4 | %200
 ^d/4 ^f/4=g/4a/4 =c/4 ^d/4e/4^f/4 A/4 c/4B/4A/4 ^G/4 B/4c/4=d/4 c/4B/4A/4B/4 G/4 B/4c/4d/4 | %201
 =F/4 B/4c/4d/4c/4B/4A/4B/4 z/4 B/4c/4d/4 z/4 B/4c/4d/4c/4B/4A/4B/4 z/4 B/4c/4d/4 | %202
 z/4 B/4c/4d/4c/4B/4A/4B/4 z/4 B/4c/4d/4[Q:1/4=50] x/ E/4 ^D/4B/4=F/4[Q:1/4=70] x/ E/4 D/4B/4F/4[Q:1/4=90] x/ E/4 D/4B/4F/4 x/ | %203
[Q:1/4=25] z !^!A!^!^G[Q:1/4=15] !fermata!MA2 z |] %204
V:2
 x8 | x8 | x8 | x8 | x2 x (3x/ B,/A,/ (3^G,/A,/B,/ (3E,/G,/B,/ x2 | %5
 (3x/ A,/B,/ x x (3x/ B,/A,/ ^G,/F/B,/F/ =G,/E/B,/E/ | %6
 ^F,/E/A,/E/ =F,/D/A,/D/ E,/D/^G,/D/ E,/C/=G,/C/ | %7
 ^D,/C/^F,/C/ =D,/B,/=F,/B,/ ^C,/B,/E,/B,/ =C,/A,/E,/A,/ | %8
 B,,/A,/D,/A,/ B,,/^G,/D,/G,/ x (3B,/^G,/A,/ x (3B,/G,/A,/ | %9
 x (3B,/^G,/A,/ x (3B,/G,/A,/ x (3B,/G,/A,/ x (3B,/G,/A,/ | %10
 (3z/ A,/C/ x (3z/ A,/D/ x (3z/ A,/C/ x (3z/ ^G,/B,/ x | %11
 (3E,/A,/C/ x (3F,/A,/D/ x (3E,/A,/C/ x (3D,/^G,/B,/ x | %12
 (3z/ E,/A,/ x (3z/ F,/A,/ x (3z/ E,/A,/ z (3z/ D,/^G,/ x | %13
 (3A,,/E,/A,/ x (3B,,/E,/A,/ x (3C,/E,/A,/ x (3^C,/E,/=G,/ x | %14
 (3z/ F,/A,/ x (3z/ E,/A,/ x (3z/ F,/A,/ x (3z/ G,/A,/ x | %15
 (3F,/A,/D/ x (3G,/_B,/D/ x (3A,/x/x/ x (3_B,/x/x/ x | A,2 _B,2 A,2 G,2 | %17
 (3A,/D/F/ x (3_B,/^C/E/ x (3A,/D/F/ x (3G,/C/E/ x | %18
 (3F,/A,/D/ x (3G,/^C/E/ x (3F,/A,/D/ x (3E,/G,/^C/ x | %19
 (3D,/A,/D/ x (3E,/G,/_B,/ x (3^F,/A,/^C/ x (3^G,/=B,/D/ x | %20
 (3A,/=C/E/ x (3^G,/A,/D/ x (3A,/C/E/ x (3B,/D/F/ x | x8 | %22
 x4 x/4 ^G,/4x/4G,/4x/4G,/4x/4G,/4x/4G,/4x/4G,/4x/4G,/4x/4G,/4 | E8- | E4 z4 | z8 | z8 | z8 | %28
 z2 z/ E/F/^C/ D4 | z8 | x2 ^G,/B,/E,/ x/ x4 | CDEF E4 | D z x2 x4 | %33
 A,/4C/4B,/4C/4 x A,/4C/4B,/4C/4^F,/4A,/4G,/4A,/4 D,/4^F,/4A,/4C/4 _E/4D/4C/4B,/4A,/4G,/4^F,/4=E,/4D,/4C,/4B,,/4A,,/4 | %34
 x/4 D,/4E,/4^F,/4G,/4A,/4B,/4C/4 B,/4G,/4A,/4B,/4C/4x/4x/4x/4 x4 | x8 | %36
 x4 z/ F,/A,/F,/ B,/B,/D/B,/ | C/x/ x x2 x4 | x4 z/ D,/F,/D,/ ^G,/G,/B,/G,/ | A,4- A,2 z2 | z8 | %41
 z8 | z8 | x2 A,/x/ x z/ A,/=G,/A,/ D,/D/G,/B,/ | x4 x B,B,B, | A,2 z2 z4 | z8 | %47
 z2 z/ E/D/E/ C3/2B,/4A,/4 B,>D | E2 x z[K:treble] z/ A/G/A/ F3/2E/4D/4 | E>G F2- F/E/F/E/ F2- | %50
 F/E/F/E/ F2- F/E/F/G/ A2- | A2 d^c A2 z/ F/E/D/ | ^CD/E/ F/D/C/B,/ A4 |][M:6/8][K:bass] z6 | z6 | %55
 z6 | z6 | z6 | z6 | z6 | z6 | z6 | z6 | z6 | z6 | z6 | z6 | A,C/B,/C/A,/ B,E,/B,/E/B,/ | %68
 CA,E F/E/F/D/F/C/ | F/D/F/B,/F/G,/ E/D/E/C/E/B,/ | E/C/E/A,/E/F,/ D/C/D/B,/D/A,/ | %71
 D/B,/D/^G,/D/E,/ C/B,/C/^G,/A,/C/ |[K:treble] E/B,/C/E/A/^F/ G>AG/F/ | %73
 G>^DE/B,/ ^C/G,/A,/C/E/=D/ | ^C/E/A/G/=F/E/ D3- | D =C2- C/C/B,/A,/B,/^G,/ | A,CA, D3- | %77
 D/D/C/B,/C/A,/ B,CG, | A, B,2- B,/B,/E/^D/E- | A/G/ A2- AG/^F/G/B/ | E^FG A2 z | DE^F G2 z | %82
 ED/C/B,/A,/ ^D3- | D E2 EEE | =D3 DDD | C3 F3- | F3- F E2- | E/D/C/E/D/E/ F/E/F/G/E/F/ | %88
 D/C/B,/D/C/D/ E/D/E/F/D/E/ | C/B,/C/D/B,/C/ D/C/D/E/C/D/ | B,3 A,/B,/C/D/E/C/ | F2 F E2 E | %92
 D2 D C2 C | B,>CA,/B,/ C>DB,/C/ | D>EC/D/ E>FD/E/ | F/E/D/F/E/D/ C/D/ PB,>C | %96
 A,3- A,2[K:bass] ^G, | A,3- A,2 A, | =G,3- G,2 z | F,2 C- CB,/A,/^G,/A,/ | B,3- B,A,C- | CB, x4 | %102
 z6 | z2 z z/ ^F,/G,/^D,/E,/^A,,/ | B,,/^D,/^F,/C/A,/F,/ G,E,B, | %105
 C/B,/C/A,/C/G,/ C/A,/C/^F,/C/D,/ | B,/A,/B,/G,/B,/^F,/ B,/G,/B,/E,/B,/C,/ | %107
 A,/G,/A,/^F,/A,/E,/ A,/F,/A,/^D,/A,/B,,/ | G,/^F,/G,/A,/B,/G,/ A,/G,/A,/B,/C/A,/ | %109
 D/C/D/D,/^F,/D,/ G,/F,/G,/A,/B,/G,/ | C/B,/C/C,/E,/C,/ ^F,/E,/F,/G,/A,/F,/ | %111
 D/C/D/B,,/^D,/B,,/ E,/D,/E,/^F,/G,/E,/ | A,/^G,/A,/A,,/C,/A,,/ D,/^C,/D,/E,/=F,/D,/ | %113
 G,/^F,/G,/A,/B,/G,/ C/D/E/D/E/C/ | DG,/D/G/F/ E/D/E/F/G/E/ | F,/G,/F,/E,/D,/C,/ B,,B,B,, | %116
 E,/F,/E,/D,/C,/B,,/ A,,A,A,, | D,/E,/D,/C,/B,,/A,,/ G,,G,G,, | C,CB, A,A,,A, | D,DC B,B,,B, | %120
 E,ED CC,C | ^F,E,F, G,F,G, | C,B,,C, D,C,D, | B,G,C- CB,A, | G,A,B, C3- | CB,A, B,3- | %126
 B,A,G, A,3- | A,G,^F, G,F,E, | ^F,E,F, G,F,G, | A,G,A, B,A,B, | x6 | z6 | z6 | z6 | z6 | z6 | z6 | %137
 z6 | z6 | z6 | z6 | z6 | z6 | G,/x/A,/x/B,/ x/ x x2 | F,/x/G,/x/A,/ x/ x x2 | %145
 ^G,/x/A,/x/=B,/ x/ x x2 | z6 | z6 | z2 z!mf! A,C/B,/C/A,/ | B,E,/B,/E/B,/ CA,E | %150
 F/E/F/D/F/C/ F/D/F/B,/F/G,/ | E/D/E/C/E/B,/ E/C/E/A,/E/F,/ | D/C/D/B,/D/A,/ D/B,/D/^G,/D/E,/ | %153
 C/B,/C/A,/D/B,/ C/B,/C/A,/D/^G,/ | A,/^G,/A,/E,/G,/E,/ A,/G,/A,/E,/B,/E,/ | %155
 C/B,/C/A,/D/^G,/ A,/G,/A,/C/B,/D/ | ^G, z z[K:treble] E/F/E/D/E/C/ | A/B/A/G/F/E/ D3 | %158
 D3- D/C/D/E/^F/^G/ | A/=F/E/D/C/B,/ C3 | B,3 B,3 | ECA- A^F^D | B,BA G2 ^F | %163
 E2 D C/B,/C/A,/B,/G,/ | A,2- A,/A/ G/^F/E/B,/^D/A,/ | G,2 z z2 z |[K:bass] z B,E- E^D/^C/D | %167
 E,/^F,/x/F,/G,/E,/ F,/B,,/^D,/F,/B,/F,/ | G,E,G,- G,^F,E, | ^F,D,F,- F,E,D, | E,C,E,- E,^D,E, | %171
 ^D,B,,D, E,G,B, | A,E,A,- A,=F,A, | G,D,G,- G,CC, | CA,C x3 | B,^G,B, x3 | %176
 ^F,2 z[K:treble] z ^GA | B2 z EAF- | F/E/D/F/E/D/ C/E/D/C/B,/A,/ |[K:bass] ^G,2 z4 | %180
 ^G,,/B,,/E,/^F,/^G,/A,/[K:treble] B,/C/D/E/^F/^G/ | A/^G/A/=F/E/D/ E/D/C/E/D/C/ | %182
[K:bass] D/C/B,/A,/^G,/^F,/ E,/D/C/B,/A,/G,/ | A,/B,/C/B,/C/A,/ B,E,/B,/E/B,/ | CA,E F/E/F/D/F/C/ | %185
 F/D/F/B,/F/G,/ E/D/E/C/E/_B,/ | E/C/E/A,/E/F,/ D/C/D/_B,/D/A,/ | %187
 D/=B,/D/^G,/D/E,/ C/B,/C/A,/C/G,/ | B,/A,/B,/^G,/B,/E,/ A,/^G,/A,/^F,/A,/^D,/ | %189
 ^G,/^F,/G,/E,/F,/G,/ A,/G,/A,/E,/G,/A,/ | B,/A,/B,/C,/A,/B,/ C/B,/C/E,/B,/C/ | %191
"_cresc." D2 z D2 z | D2 z D2 z |!fff!!fff! E2 z z z2 | z6 | z6 | z6 | z6 | x6 | x6 | x6 | x6 | %202
 B,2 B, (^G,/4B,/4)x/4 x3/4 (G,/4B,/4)x/4 x3/4 (G,/4B,/4)x/4 x3/4 x/ | %203
 z !^!A,!^!E, !fermata!A,2 z |] %204
V:3
 z8 | z8 | z8 | z8 | z8 | z8 | z8 | z8 | z8 | A,,8- | A,,8- | A,,8- | A,,8- | A,,8- | A,,8- | %15
 A,,8- | A,,8- | A,,8- | A,,8- | A,,8- | A,,8- | A,,8- | A,,8- | %23
 A,,/ A,,/C,/A,,/ E,/ C,/E,/C,/ A,/ E,/A,/E,/ C/^D,/E, | E,,4 z/!fff! E,/^G,/E,/ B,/E,/G,/E,/ | %25
 C/^D,/^F,/D,/ B,/=D,/=F,/D,/ B,/^C,/E,/C,/ A,/=C,/E,/C,/ | %26
 A,/B,,/^D,/B,,/ ^G,/B,,/=D,/B,,/ =G,/^C,/E,/A,,/ F,/^C,/D,/^G,,/ | %27
 ^C,/A,,/E,/C,/ =G,/E,/_B,/G,/ ^C/G,/A,/E,/!f! F,2- | F,4- F,2- F,/E,/F,/D,/ | ^G,8- | ^G,4 A,4- | %31
 A,4- A,2- A,/=G,/A,/E,/ | ^F,8- | ^F,8 | G,4- G,2- G,/G,/D,/G,/ | E,E,E,E, F,F,F,F, | %36
 F,F,E,E, z/ D,/F,/D,/ G,/G,,/B,,/G,,/ | C,2 z2 z4 | C,2 z2 z/ B,,/D,/B,,/ E,/E,,/^G,,/E,,/ | %39
 A,,4- A,,/A,/^G,/A,/ E,/C/E,/=G,/ | ^F,F, z2 z/ G,/^F,/G,/ D,/B,/D,/=F,/ | %41
 E,E,, z2 z/ F,/E,/F,/ C,/A,/C,/E,/ | D,E,, z2 z/ E,/D,/E,/ B,,/^G,/B,,/D,/ | C,C,C,C, C,C,B,,B,, | %44
 B,,B,,A,,A,, A,,A,,^G,,G,, | A,,/A,/^G,/A,/ E,/C/E,/A,/ C,/E,/^D,/E,/ C,/A,/C,/E,/ | %46
 A,,/C,/B,,/C,/ A,,/E,/A,,/C,/ E,,4- | E,,8 | A,,8- | A,,2 z/ D,/^C,/D,/ A,,A, z/ D,/^C,/D,/ | %50
 A,,A, z/ F,/E,/F,/ D,A, z/ F,/E,/F,/ | D,A, z/ A,/G,/A,/ F,D z/ B,/^G,/B,/ | A,,8 |][M:6/8] z6 | %54
 z6 | z6 | z6 | z6 | z6 | z6 | z6 | z6 | z6 | z6 | z6 | z6 | z6 | z6 | z6 | z6 | z6 | z6 | z6 | %73
 z6 | z6 | z6 | z6 | z6 | z2 z E,G,/^F,/G,/E,/ | ^F,B,,B,/F,/ G,E,B, | %80
 C/B,/C/A,/C/G,/ C/A,/C/^F,/C/D,/ | B,/A,/B,/G,/B,/^F,/ B,/G,/B,/E,/B,/C,/ | %82
 A,/G,/A,/^F,/A,/E,/ A,/F,/A,/^D,/A,/B,,/ | G,/^F,/G,/^D,/E,/B,,/ ^C,/B,,/C,/A,,/E,/C,/ | %84
 =F,/E,/F,/C,/D,/A,,/ B,,/A,,/B,,/G,,/D,/B,,/ | E,/D,/E,/B,,/C,/^G,,/ A,,/=G,,/A,,/F,,/C,/A,,/ | %86
 D,/C,/D,/B,,/F,/D,/ ^G,/^F,/G,/E,/B,/G,/ | A,A,, z z D,F, | G,G,, z z C,E, | F,A,F, D,B,,D, | %90
 E,^G,E, C,A,,A, | A,/C/B,/C/A,/B,/ ^G,/B,/A,/B,/G,/A,/ | %92
 ^F,/A,/^G,/A,/F,/G,/ A,/E,/=F,/E,/F,/C,/ | D,2 z E,2 z | F,2 z C,2 z | D,2 ^G,, A,,E,E,, | %96
 A,,3 E,3 | A,,C,/B,,/C,/A,,/ D,2 A,, | B,,G,,B,, C,2 z | A,,F,,A,, B,,2 z | ^G,,E,,G,, A,,2 z | %101
 E,2 z B,2 G,- | G,/A,/B,B,, E,2 z | E,,2 z z2 z | z6 | z6 | z6 | z6 | z6 | z6 | z6 | z6 | z6 | %113
 z6 | z6 | z6 | z6 | z6 | z6 | z6 | z6 | z6 | z6 | z6 | z6 | z6 | z6 | z6 | z6 | z6 | z6 | z6 | %132
 z6 | z6 | z6 | z6 | z6 | z6 | z6 | z6 | z6 | z6 | z6 | z6 | z6 | z6 | z6 | %147
 z2 z A,,C,/B,,/C,/A,,/ | B,,E,,E,/B,,/ C,A,,A,- | A, ^G,2 A,/A,,/C,/B,,/C,/A,,/ | %150
 D,2 z z B,,/A,,/B,,/G,,/ | C,2 z z A,,/G,,/A,,/F,,/ | B,,2 z z ^G,,/^F,,/G,,/E,,/ | A,,2 z z2 z | %154
 A,,2 z z2 z | A,,2 z z2 z | E,^F,^G, A,A,,A, | D,E,=F, G,G,,G,/A,/ | B,A,G, CC,E, | A,3- A,3- | %160
 A,>G,A,/^F,/ G,>F,G,/E,/ | C>B,C/A,/ B,/A,/B,/G,/A,/^F,/ | %162
 G,/^F,/G,/E,/F,/=D,/ E,/D,/E,/C,/D,/B,,/ | C,/B,,/C,/A,,/B,,/G,,/ A,,2 G,, | %164
 ^F,,E,,^D,, E,, B,,2 | E,,2 z B,,2 z | E,2 z B,2 z | E,2 z B,,2 z | E,,2 z A,,2 z | %169
 D,,2 z G,,2 z | C,,2 z ^F,,2 z | B,,3 G,/^F,/G,/E,/G,/=D,/ | %172
 G,/E,/G,/^C,/G,/A,,/ =F,/E,/F,/D,/F,/=C,/ | F,/D,/F,/B,,/F,/G,,/ E,/D,/E,/C,/E,/B,,/ | %174
 E,/C,/E,/A,,/E,/F,,/ D,/C,/D,/B,,/D,/G,,/ | D,/B,,/D,/^G,,/D,/E,,/ C,2 z | C,2 z B,,B,A, | %177
 ^G,2 z A,F,D, | E,2 z z2 z | E,,2 z4 | z E,,^F,, ^G,,F,,E,, | z A,,B,, C,B,,A,, | %182
 z E,^F, ^G,F,E, | A,3- A, ^G,2 | A,/A,,/C,/B,,/C,/A,,/ D,2 z | G,,A,,B,, C,2 z | %186
 F,,G,,A,, _B,,C,D, | E,,2 z4 | E,,2 z4 | E,,2 z4 | E,,2 z4 | %191
 z/ B,,/D,/C,/D,/B,,/ ^G,/E,/=F,/E,/F,/D,/ | B,/^F,/^G,/F,/G,/E,/ D/A,/B,/A,/B,/^G,/ | %193
 C/^G,/A,/E,/=F,/^D,/ E,/^G,/A,/E,/F,/^D,/ | E,/^G,/A,/E,/F,/^D,/ E,/D,/E,/B,,/C,/^G,,/ | %195
 A,,/^D,/E,/B,,/C,/^G,,/ A,,/D,/E,/B,,/C,/G,,/ | A,,/C,/C,/E,/E,/A,/ C,/E,/E,/A,/A,/C/ | %197
 ^G,/A,/E,/F,/^D,/E,/ B,,/C,/^G,,/A,,/E,,/^F,,/ | ^D,,2 z4 | z6 | z2 z E,,2 z | z6 | z8 | %203
 E,,2 !^!E,, !fermata!A,,2 z |] %204
V:4
 x8 | x8 | x8 | x8 | x8 | x8 | x8 | x8 | x4 (3A,,/C,/E,/ x (3B,,/D,/E,/ x | %9
 (3C,/E,/A,/ x (3D,/F,/A,/ x (3E,/A,/C/ x (3F,/A,/D/ x | E,2 F,2 E,2 D,2 | x8 | C,2 D,2 C,2 B,,2 | %13
 x8 | D,2 ^C,2 D,2 E,2 | x8 | x8 | x8 | x8 | x8 | x8 | x8 | x8 | A,8 | B,4 x4 | x8 | x8 | x8 | %28
 z4 z/ A,/_B,/G,/ A,2 | x8 | z4 A,,E,A,B, | x8 | x8 | x8 | G,,/4 x31/4 | x8 | x8 | x8 | x8 | x8 | %40
 x8 | x8 | x8 | x8 | C/E,/D,/E,/ F,F, F,F,E,E, | E,2 x6 | x8 | x8 | C^C D x[K:treble] x4 | x8 | %50
 x8 | x8 | x2 F2 E4 |][M:6/8][K:bass] x6 | x6 | x6 | x6 | x6 | x6 | x6 | x6 | x6 | x6 | x6 | x6 | %65
 x6 | x6 | x6 | x6 | x6 | x6 | x6 |[K:treble] x6 | x6 | x6 | x6 | x6 | x6 | x5 z/ G/ | %79
 E^D/^C/D- DE=D | x6 | x6 | x6 | x6 | x6 | x3 C3 | B,3- B,3 | z6 | z6 | z6 | x6 | x6 | x6 | x6 | %94
 x6 | x6 | x5[K:bass] x | z6 | z6 | z6 | z6 | z6 | x6 |xx/B,/C/A,/ B,2 x | x6 | x6 | x6 | x6 | x6 | %109
 x6 | x6 | x6 | x6 | x3 CB,A, | G,3 C3 |x5x/B,/ |x5x/A,/ |x5x/G,/ | x5 A,/ x/ | x5 B,/ x/ | %120
 x5 C/ x/ | x6 | x6 | E,3 ^F,3 | G,3- G,E,C, | ^F,3- F,D,B,, | E,3- E,C,A,, | D,3- D,3- | D,6- | %129
 D,6- | D,3- D, z z | x6 | x6 | x6 | x6 | x3 G,/_B,/x/ x3/2 | x3 F,/A,/x/ x3/2 | x4 C/=B,/C- | %138
 CB,/A,/B,- B,A,/^G,/A,- | A,^G,/^F,/G, A,B,C | x6 | x6 | x6 | z6 | z6 | z6 | A,/x/ x5 | x6 | x6 | %149
 x6 | x6 | x6 | x6 | x6 | x6 | x6 | x3[K:treble] x3 | x6 | x6 | x6 | x6 | x6 | x6 | x6 | x6 | x6 | %166
[K:bass] z6 | Ex x4 | x6 | x6 | x6 | x6 | x ^C x4 | x B, x4 | D,3- D,B,B,, | %175
 E,3- E,/^F,/=G,/A,/B,/C/ | x3[K:treble] z DC | B,2 z C2 D | B,2 z A,2 z | %179
[K:bass] F,/E,/D,/F,/E,/D,/ C,/E,/D,/C,/B,,/A,,/ | x3[K:treble] x3 | x6 |[K:bass] x6 | x6 | x6 | %185
 x6 | x6 | x6 | x6 | x6 | x6 | x3 B,2 x | B,2 x B,2 x | C2 x4 | x6 | x6 | x6 | x6 | x6 | x6 | x6 | %201
 x6 | x8 | z !^!E,!^!D, E,2 z |] %204
V:5
 x8 | x8 | x8 | x8 | x8 | x8 | x8 | x8 | x8 | x8 | x8 | x8 | x8 | x8 | x8 | x8 | %16
 (3z/ D/F/ x (3z/ D/G/ x (3z/ D/F/ x (3z/ ^C/E/ x | x8 | x8 | x8 | x8 | C/4 x31/4 | %22
 x4 F/4x/4F/4x/4F/4x/4F/4x/4 F/4x/4F/4x/4F/4x/4F/4x/4 | A8- | A/A/^G/^F/ G/F/G/^D/ !^!E z z2 | x8 | %26
 x8 | x8 | z/ A/_B/G/ A2- A4 | x8 | x8 | z4 z/ d/e/B/ c2- | %32
 c/4c/4B/4c/4 z/4 c/4B/4c/4 A/4c/4B/4c/4^F/4A/4G/4A/4 D/4A/4G/4A/4c/4A/4G/4A/4 ^F/4A/4G/4A/4D/4F/4E/4F/4 | %33
 x8 | x8 | z4 z/ F/A/F/ d/F/A/F/ | z/ G/B/G/ c/C/E/C/ AAGG | %37
 x/ E/G/E/ _B/E/G/E/ A/D/F/D/ G/C/E/C/ | z/ A/B/G/ A2 ^GA B2- | B2- B/B/A/^G/ A2 z2 | %40
 z/ A/^G/A/ D/^F/F/A/ DD z2 | z/ G/=F/G/ C/E/E/G/ CC z2 | z/ D/C/D/ _B,/D/D/F/ =B,B, z2 | %43
 z/ C/B,/C/ x/ C/C/E/ z/ ^F/E/F/ =G=F | E/G/F/G/ C/A/G/A/ DDEE | A2 z2 z4 | x8 | %47
 z/ A/^G/A/ G/G/^F/G/ E2- E2 | x2 z/ d/^c/d/ c/c/B/c/ A2- | A2 A2- AA A2- | AA A2- AA d2- | %51
 d/^c/d/e/ fe d/=c/B/A/ ^G2 | A2 z/ f/e/d/ ^c4 |][M:6/8] z6 | z6 | z6 | z6 | z6 | %58
 EG/^F/G/E/ FB,/F/B/F/ | GEB c/B/c/A/c/G/ | c/A/c/^F/c/D/ B/A/B/G/B/^F/ | %61
 B/G/B/E/B/C/ A/G/A/^F/A/E/ | A/^F/A/^D/A/B,/ G/F/G/B/e/^c/ | d3- d/^G/A/=c/^f/^d/ | %64
 e3- e/=d/c/B/c/A/ | d3- d/d/c/B/A/G/ | =F3- F/E/D/E/^F/^G/ | A3- A/^G/A/^F/G/B/ | Ec/B/A/^G/ A3 | %69
 d3- dc/B/A/G/ | c3- cB/A/^G/A/ | B3- BA/B/c/B/ | c3- c/c/B/A/B | z/ B3/2 B A/^c/e/d/c/B/ | %74
 AB^c- c/A/B/c/d/A/ | ^G/E/A/B/=c/A/ ^F^G>B- | B/B/A/^G/A/E/ =F3 | E2 ^F ^D E2- | E/E/ ^D2 E2 x | %79
 x6 | e3- ed/c/B/A/ | d3- dc/B/A/G/ | c3- cB/A/G/^F/ | A3- AGG | A3 GFF | G2 c x3 | x6 | x6 | x6 | %89
 x6 | x6 | x6 | x6 | x6 | x6 | x6 | x6 | x6 | x6 | x6 | x6 |xxE ^D/^F/B/D/E- | E/A/ P^F>E E2 z | %103
 z/ ^D/E/x/ x3 G | ^F3 B2- B/^d/ | e3/2^fe/ z/ ^f=dA/ | d3/2e^d/ z/ ecG/ | c z/ ^d^c/ z/ ^dB^F/ | %108
 B3- BAG | ^F3- FDG | E3- E/G/^F/E/^D/E/ | ^D3 E2 z | z6 | z2 z x3 | x6 | %115
 A/G/A/F/A/E/ A/F/A/D/A/ x/ | G/F/G/E/G/D/ G/E/G/C/G/ x/ | F/E/F/D/F/C/ F/D/F/B,/F/ x/ | %118
 E/D/ E2 z/ A/E/C/x/G/ | ^F/E/ F2 z/ B/^F/D/x/A/ | G/^F/ G2 z/ c/G/E/x/B/ | A/G/ A2- A>AG/^F/ | %122
 E/D/ E2- E>ED/C/ | x6 | x6 | x6 | x6 | x6 | x6 | x6 | ^C>DB,/C/ D/E/=F/E/F/D/ | EA,/E/A/E/ FDA | %132
 _B/A/B/G/B/F/ B/G/B/E/B/^C/ | A/G/A/F/A/E/ A/F/A/D/A/=B,/ | G/F/G/E/G/D/ G/E/G/^C/G/A,/ | %135
 FDF x D/F/G/F/ | ECE x C/_E/F/E/ | D3- Dx x | x6 | x6 | D2 z B,CD | E2 z CDE | F2 z D/F/D/G/D/A/ | %143
 x/ G/x/G/x/G/ C/E/C/F/C/G/ | x/ F/x/F/x/F/ _B,/D/B,/E/B,/F/ | x/ E/x/E/x/E/ C/E/C/^F/C/^G/ | %146
 x/ A/=G/A/F/A/ E/^G/E/A/E/B/ | C/E/C/^F/C/^G/ C/E/A/^G/A/E/ | D/A/^G/^F/G/B/ E3 | B3- B A2- | %150
 A3- A G2- | G3- G F2- | F3- F E2- | E2 z z2 z | z6 | z6 | z6 | z6 | z6 | z6 | z6 | z6 | z6 | z6 | %164
 z6 | E/^F/G/F/G/E/ F/B,/^D/F/B/F/ | Gx x4 | x Be- e^d/^c/d | e/E/G/B/e/B/ =c/B/c/A/c/G/ | %169
 c/A/c/^F/c/D/ B/A/B/G/B/^F/ | B/G/B/E/B/C/ A/G/A/^F/A/E/ | A/^F/A/^D/A/B,/ GEG | ExE =FDF | %173
 DxD EGD | x3 DFD | x3 C2 z | D2 z x3 | x6 | x6 | x3 A2 z | B3- B3- | B3 A3- | A^GA B3- | %183
 BA/^G/A d B2- | BGA- A3 | G3- G3 | F3- F3 | E3 E2 ^F | ^G2 G A2 A | Bdc AcA | ^G2 G ^F2 F | %191
 =F2 z E2 z | ^G2 z B2 x | c2 z z2 z | z6 | z6 | z6 | z6 | x6 | x6 | x6 | x2 ^G G2 G | ^G2 G x5 | %203
 z !^!E!^!E E2 z |] %204
V:6
 x8 | x8 | x8 | x8 | x8 | x8 | x8 | x8 | x8 | x8 | x8 | x8 | x8 | x8 | x8 | x8 | x8 | x8 | x8 | %19
 x8 | x8 | x8 | x8 | x8 | x8 | x8 | x8 | x8 | x8 | x8 | x8 | x8 | x8 | x8 | x8 | x8 | D dee eddd | %37
 c/ x15/2 | ^F2- F/F/G/E/ =F2 E2- | E4- E2 z2 | x4 =GG z2 | x4 FF z2 | x4 EE z2 | x8 | x8 | E2 x6 | %46
 x8 | x8 | x8 | x8 | x8 | x8 | x4 e4 |][M:6/8] x6 | x6 | x6 | x6 | x6 | x6 | x6 | x6 | x6 | x6 | %63
 x6 | x6 | x6 | x6 | x6 | x6 | x6 | x6 | x6 | x6 | x6 | x6 | x6 | x6 | x6 | x6 | x6 | x6 | x6 | %82
 x6 | x6 | x6 | x6 | x6 | x6 | x6 | x6 | x6 | x6 | x6 | x6 | x6 | x6 | x6 | x6 | x6 | x6 | x6 | %101
 x6 | x6 | x6 | x6 | x6 | x6 | x6 | x6 | x6 | x6 | x6 | x6 | x6 | x6 | x6 | x6 | x6 | x6 | x6 | %120
 x6 | x6 | x6 | x6 | x6 | x6 | x6 | x6 | x6 | x6 | x6 | x6 | x6 | x6 | x6 | x6 | x6 | x6 | x6 | %139
 x6 | x6 | x6 | x6 | x6 | x6 | x6 | x6 | x6 | x6 | x6 | x6 | x6 | x6 | x6 | x6 | x6 | x6 | x6 | %158
 x6 | x6 | x6 | x6 | x6 | x6 | x6 | x6 | x6 | x6 | x6 | x6 | x6 | x6 | x6 | x6 | x6 | x6 | x6 | %177
 x6 | x6 | x6 | x6 | x6 | x6 | x6 | x6 | x6 | x6 | x6 | x6 | x6 | x6 | x6 | B2 x d2 x | A2 x4 | %194
 x6 | x6 | x6 | x6 | x6 | x6 | x6 | x2 F D2 D | D2 D x5 | z !^!C!^!B, C2 z |] %204
V:7
 x8 | x8 | x8 | x8 | x8 | x8 | x8 | x8 | x8 | x8 | x8 | x8 | x8 | x8 | x8 | x8 | x8 | x8 | x8 | %19
 x8 | x8 | x8 | x8 | x8 | x8 | x8 | x8 | x8 | x8 | x8 | x8 | x8 | x8 | x8 | x8 | x8 | x8 | %37
 G/ x15/2 | x8 | x8 | x8 | x8 | x8 | x8 | x8 | x8 | x8 | x8 | x8 | x8 | x8 | x8 | x8 |][M:6/8] x6 | %54
 x6 | x6 | x6 | x6 | x6 | x6 | x6 | x6 | x6 | x6 | x6 | x6 | x6 | x6 | x6 | x6 | x6 | x6 | x6 | %73
 x6 | x6 | x6 | x6 | x6 | x6 | x6 | x6 | x6 | x6 | x6 | x6 | x6 | x6 | x6 | x6 | x6 | x6 | x6 | %92
 x6 | x6 | x6 | x6 | x6 | x6 | x6 | x6 | x6 | x6 | x6 | x6 | x6 | x6 | x6 | x6 | x6 | x6 | x6 | %111
 x6 | x6 | x6 | x6 | x6 | x6 | x6 | x6 | x6 | x6 | x6 | x6 | x6 | x6 | x6 | x6 | x6 | x6 | x6 | %130
 x6 | x6 | x6 | x6 | x6 | x6 | x6 | x6 | x6 | x6 | x6 | x6 | x6 | x6 | x6 | x6 | x6 | x6 | x6 | %149
 x6 | x6 | x6 | x6 | x6 | x6 | x6 | x6 | x6 | x6 | x6 | x6 | x6 | x6 | x6 | x6 | x6 | x6 | x6 | %168
 x6 | x6 | x6 | x6 | x6 | x6 | x6 | x6 | x6 | x6 | x6 | x6 | x6 | x6 | x6 | x6 | x6 | x6 | x6 | %187
 x6 | x6 | x6 | x6 | x6 | x3 ^G2 x | x6 | x6 | x6 | x6 | x6 | x6 | x6 | x6 | x3 F2 F | F2 F x5 | %203
 x2 !^!D C2 z |] %204
V:8
 x8 | x8 | x8 | x8 | x8 | x8 | x8 | x8 | x8 | x8 | x8 | x8 | x8 | x8 | x8 | x8 | x8 | x8 | x8 | %19
 x8 | x8 | x8 | x8 | x8 | x8 | x8 | x8 | x8 | x8 | x8 | x8 | x8 | x8 | x8 | x8 | x8 | x8 | x8 | %38
 x8 | x8 | x8 | x8 | x8 | x8 | x8 | x8 | x8 | x8 | x4[K:treble] x4 | x8 | x8 | x8 | x4 ^C4 |] %53
[M:6/8][K:bass] x6 | x6 | x6 | x6 | x6 | x6 | x6 | x6 | x6 | x6 | x6 | x6 | x6 | x6 | x6 | x6 | %69
 x6 | x6 | x6 |[K:treble] x6 | x6 | x6 | x6 | x6 | x6 | x6 | x6 | x6 | x6 | x6 | x6 | x6 | x6 | %86
 x6 | x6 | x6 | x6 | x6 | x6 | x6 | x6 | x6 | x6 | x5[K:bass] x | x6 | x6 | x6 | x6 | x6 | x6 | %103
 x6 | x6 | x6 | x6 | x6 | x6 | x6 | x6 | x6 | x6 | x6 | x6 | x6 | x6 | x6 | x6 | x6 | x6 | x6 | %122
 x6 | x6 | x6 | x6 | x6 | x6 | x6 | x6 | x6 | x6 | x6 | x6 | x6 | x6 | x6 | x6 | x6 | x6 | x6 | %141
 x6 | x6 | x6 | x6 | x6 | x6 | x6 | x6 | x6 | x6 | x6 | x6 | x6 | x6 | x6 | x3[K:treble] x3 | x6 | %158
 x6 | x6 | x6 | x6 | x6 | x6 | x6 | x6 |[K:bass] x6 | x6 | x6 | x6 | x6 | x6 | x6 | x6 | x6 | x6 | %176
 x3[K:treble] x3 | x6 | x6 |[K:bass] x6 | x3[K:treble] x3 | x6 |[K:bass] x6 | x6 | x6 | x6 | x6 | %187
 x6 | x6 | x6 | x6 | x6 | x6 | x6 | x6 | x6 | x6 | x6 | x6 | x6 | x6 | x6 | x8 | %203
 z !^!C,!^!B,, A,,2 z |] %204
V:9
 x8 | x8 | x8 | x8 | x8 | x8 | x8 | x8 | x8 | x8 | x8 | x8 | x8 | x8 | x8 | x8 | x8 | x8 | x8 | %19
 x8 | x8 | x8 | x8 | x8 | x8 | x8 | x8 | x8 | x8 | x8 | x8 | x8 | x8 | x8 | x8 | x8 | x8 | x8 | %38
 x8 | x8 | x8 | x8 | x8 | x8 | x8 | x8 | x8 | x8 | x4[K:treble] x4 | x8 | x8 | x8 | x4 A,4 |] %53
[M:6/8][K:bass] x6 | x6 | x6 | x6 | x6 | x6 | x6 | x6 | x6 | x6 | x6 | x6 | x6 | x6 | x6 | x6 | %69
 x6 | x6 | x6 |[K:treble] x6 | x6 | x6 | x6 | x6 | x6 | x6 | x6 | x6 | x6 | x6 | x6 | x6 | x6 | %86
 x6 | x6 | x6 | x6 | x6 | x6 | x6 | x6 | x6 | x6 | x5[K:bass] x | x6 | x6 | x6 | x6 | x6 | x6 | %103
 x6 | x6 | x6 | x6 | x6 | x6 | x6 | x6 | x6 | x6 | x6 | x6 | x6 | x6 | x6 | x6 | x6 | x6 | x6 | %122
 x6 | x6 | x6 | x6 | x6 | x6 | x6 | x6 | x6 | x6 | x6 | x6 | x6 | x6 | x6 | x6 | x6 | x6 | x6 | %141
 x6 | x6 | x6 | x6 | x6 | x6 | x6 | x6 | x6 | x6 | x6 | x6 | x6 | x6 | x6 | x3[K:treble] x3 | x6 | %158
 x6 | x6 | x6 | x6 | x6 | x6 | x6 | x6 |[K:bass] x6 | x6 | x6 | x6 | x6 | x6 | x6 | x6 | x6 | x6 | %176
 x3[K:treble] x3 | x6 | x6 |[K:bass] x6 | x3[K:treble] x3 | x6 |[K:bass] x6 | x6 | x6 | x6 | x6 | %187
 x6 | x6 | x6 | x6 | x6 | x6 | x6 | x6 | x6 | x6 | x6 | x6 | x6 | x6 | x6 | x8 | x6 |] %204

